X:12428
T:Ont menarem...
R:Bourree 3 temps
C:trad.
A:Corrze
O:France
Z:S. Piron
M:3/8
L:1/8
Q:1/8=210
K:C
d|:Gf>e|de/2d/2e/2f/2|ga/2g/2f/2e/2|d/2e/2cd|
|Gf>e|de/2d/2e/2f/2|1ga/2g/2f/2e/2|d2d:|2g>ag|d3|
|:fde|ce/2d/2e|c2_B|cd2|fde|cd/2e/2f/2d/2|1e3/2c/2d/2B/2|c3:|2ed2|c2 z|
